X:73
T: Op der Het do stet e Bam, S. 40f
N: L0033
O: Luxemburg
S: Die Luxemburger Volkslieder lterer Zeit, Luxemburg 1904 posth.]
R: ??]
M: 4/4
L: 1/8
K: G
 | G4G4 | G4A4 | B2G2A2A2 | B2G2A4
G2G2G2F2 | E2E2D2
D2 | G2G2A2A2 | d8- | d2c2BAG2 | A4G2z2

